static/img/kroki/5874f30aed50ab7a66c25718aea7538e.svg

<?xml version="1.0" encoding="us-ascii" standalone="no"?><svg xmlns="http://www.w3.org/2000/svg" xmlns:xlink="http://www.w3.org/1999/xlink" contentStyleType="text/css" height="733px" preserveAspectRatio="none" style="width:379px;height:733px;" version="1.1" viewBox="0 0 379 733" width="379px" zoomAndPan="magnify"><defs/><g><!--class account--><g id="elem_account"><rect codeLine="23" fill="#3D176E" height="39.7891" id="account" rx="2.5" ry="2.5" style="stroke:#000D19;stroke-width:0.5;" width="107" x="205" y="438.76"/><ellipse cx="220" cy="458.6545" fill="#ADD1B2" rx="11" ry="11" style="stroke:#181818;stroke-width:1.0;"/><path d="M222.9688,464.2952 Q222.3906,464.592 221.75,464.7327 Q221.1094,464.8889 220.4063,464.8889 Q217.9063,464.8889 216.5781,463.2483 Q215.2656,461.592 215.2656,458.467 Q215.2656,455.342 216.5781,453.6858 Q217.9063,452.0295 220.4063,452.0295 Q221.1094,452.0295 221.75,452.1858 Q222.4063,452.342 222.9688,452.6389 L222.9688,455.3577 Q222.3438,454.7795 221.75,454.5139 Q221.1563,454.2327 220.5313,454.2327 Q219.1875,454.2327 218.5,455.3108 Q217.8125,456.3733 217.8125,458.467 Q217.8125,460.5608 218.5,461.6389 Q219.1875,462.7014 220.5313,462.7014 Q221.1563,462.7014 221.75,462.4358 Q222.3438,462.1545 222.9688,461.5764 L222.9688,464.2952 Z " fill="#000000"/><text fill="#D9B8FF" font-family="Helvetica" font-size="17" lengthAdjust="spacing" textLength="65" x="239" y="464.5398">account</text></g><!--class resource--><g id="elem_resource"><rect codeLine="26" fill="#3D176E" height="310.7578" id="resource" rx="2.5" ry="2.5" style="stroke:#000D19;stroke-width:0.5;" width="227" x="145" y="7"/><ellipse cx="213.75" cy="26.8945" fill="#ADD1B2" rx="11" ry="11" style="stroke:#181818;stroke-width:1.0;"/><path d="M216.7188,32.5352 Q216.1406,32.832 215.5,32.9727 Q214.8594,33.1289 214.1563,33.1289 Q211.6563,33.1289 210.3281,31.4883 Q209.0156,29.832 209.0156,26.707 Q209.0156,23.582 210.3281,21.9258 Q211.6563,20.2695 214.1563,20.2695 Q214.8594,20.2695 215.5,20.4258 Q216.1563,20.582 216.7188,20.8789 L216.7188,23.5977 Q216.0938,23.0195 215.5,22.7539 Q214.9063,22.4727 214.2813,22.4727 Q212.9375,22.4727 212.25,23.5508 Q211.5625,24.6133 211.5625,26.707 Q211.5625,28.8008 212.25,29.8789 Q212.9375,30.9414 214.2813,30.9414 Q214.9063,30.9414 215.5,30.6758 Q216.0938,30.3945 216.7188,29.8164 L216.7188,32.5352 Z " fill="#000000"/><text fill="#D9B8FF" font-family="Helvetica" font-size="17" lengthAdjust="spacing" textLength="71" x="239.25" y="32.7798">resource</text><line style="stroke:#000D19;stroke-width:0.5;" x1="146" x2="371" y1="46.7891" y2="46.7891"/><text fill="#D9B8FF" font-family="sans-serif" font-size="14" font-weight="bold" lengthAdjust="spacing" textLength="29" x="156" y="68.7842">age</text><text fill="#D9B8FF" font-family="sans-serif" font-size="14" lengthAdjust="spacing" textLength="66" x="185" y="68.7842">: duration</text><text fill="#D9B8FF" font-family="sans-serif" font-size="14" font-weight="bold" lengthAdjust="spacing" textLength="43" x="156" y="95.0811">atime</text><text fill="#D9B8FF" font-family="sans-serif" font-size="14" lengthAdjust="spacing" textLength="70" x="199" y="95.0811">: datetime</text><text fill="#D9B8FF" font-family="sans-serif" font-size="14" font-weight="bold" lengthAdjust="spacing" textLength="43" x="156" y="121.3779">ctime</text><text fill="#D9B8FF" font-family="sans-serif" font-size="14" lengthAdjust="spacing" textLength="70" x="199" y="121.3779">: datetime</text><text fill="#D9B8FF" font-family="sans-serif" font-size="14" font-weight="bold" lengthAdjust="spacing" textLength="14" x="156" y="147.6748">id</text><text fill="#D9B8FF" font-family="sans-serif" font-size="14" lengthAdjust="spacing" textLength="48" x="170" y="147.6748">: string</text><text fill="#D9B8FF" font-family="sans-serif" font-size="14" font-weight="bold" lengthAdjust="spacing" textLength="33" x="156" y="173.9717">kind</text><text fill="#D9B8FF" font-family="sans-serif" font-size="14" lengthAdjust="spacing" textLength="48" x="189" y="173.9717">: string</text><text fill="#D9B8FF" font-family="sans-serif" font-size="14" font-weight="bold" lengthAdjust="spacing" textLength="90" x="156" y="200.2686">last_access</text><text fill="#D9B8FF" font-family="sans-serif" font-size="14" lengthAdjust="spacing" textLength="66" x="246" y="200.2686">: duration</text><text fill="#D9B8FF" font-family="sans-serif" font-size="14" font-weight="bold" lengthAdjust="spacing" textLength="90" x="156" y="226.5654">last_update</text><text fill="#D9B8FF" font-family="sans-serif" font-size="14" lengthAdjust="spacing" textLength="66" x="246" y="226.5654">: duration</text><text fill="#D9B8FF" font-family="sans-serif" font-size="14" font-weight="bold" lengthAdjust="spacing" textLength="48" x="156" y="252.8623">mtime</text><text fill="#D9B8FF" font-family="sans-serif" font-size="14" lengthAdjust="spacing" textLength="70" x="204" y="252.8623">: datetime</text><text fill="#D9B8FF" font-family="sans-serif" font-size="14" font-weight="bold" lengthAdjust="spacing" textLength="43" x="156" y="279.1592">name</text><text fill="#D9B8FF" font-family="sans-serif" font-size="14" lengthAdjust="spacing" textLength="48" x="199" y="279.1592">: string</text><text fill="#D9B8FF" font-family="sans-serif" font-size="14" font-weight="bold" lengthAdjust="spacing" textLength="34" x="156" y="305.4561">tags</text><text fill="#D9B8FF" font-family="sans-serif" font-size="14" lengthAdjust="spacing" textLength="171" x="190" y="305.4561">: dictionary[string, string]</text></g><!--class slack_resource--><g id="elem_slack_resource"><rect codeLine="38" fill="#3D176E" height="39.7891" id="slack_resource" rx="2.5" ry="2.5" style="stroke:#000D19;stroke-width:0.5;" width="163" x="7" y="438.76"/><ellipse cx="22" cy="458.6545" fill="#ADD1B2" rx="11" ry="11" style="stroke:#181818;stroke-width:1.0;"/><path d="M24.9688,464.2952 Q24.3906,464.592 23.75,464.7327 Q23.1094,464.8889 22.4063,464.8889 Q19.9063,464.8889 18.5781,463.2483 Q17.2656,461.592 17.2656,458.467 Q17.2656,455.342 18.5781,453.6858 Q19.9063,452.0295 22.4063,452.0295 Q23.1094,452.0295 23.75,452.1858 Q24.4063,452.342 24.9688,452.6389 L24.9688,455.3577 Q24.3438,454.7795 23.75,454.5139 Q23.1563,454.2327 22.5313,454.2327 Q21.1875,454.2327 20.5,455.3108 Q19.8125,456.3733 19.8125,458.467 Q19.8125,460.5608 20.5,461.6389 Q21.1875,462.7014 22.5313,462.7014 Q23.1563,462.7014 23.75,462.4358 Q24.3438,462.1545 24.9688,461.5764 L24.9688,464.2952 Z " fill="#000000"/><text fill="#D9B8FF" font-family="Helvetica" font-size="17" lengthAdjust="spacing" textLength="121" x="41" y="464.5398">slack_resource</text></g><!--class slack_team--><g id="elem_slack_team"><rect codeLine="41" fill="#3D176E" height="126.6797" id="slack_team" rx="2.5" ry="2.5" style="stroke:#000D19;stroke-width:0.5;" width="175" x="36" y="599.55"/><ellipse cx="68.55" cy="619.4445" fill="#ADD1B2" rx="11" ry="11" style="stroke:#181818;stroke-width:1.0;"/><path d="M71.5188,625.0852 Q70.9406,625.382 70.3,625.5227 Q69.6594,625.6789 68.9563,625.6789 Q66.4563,625.6789 65.1281,624.0383 Q63.8156,622.382 63.8156,619.257 Q63.8156,616.132 65.1281,614.4758 Q66.4563,612.8195 68.9563,612.8195 Q69.6594,612.8195 70.3,612.9758 Q70.9563,613.132 71.5188,613.4289 L71.5188,616.1477 Q70.8938,615.5695 70.3,615.3039 Q69.7063,615.0227 69.0813,615.0227 Q67.7375,615.0227 67.05,616.1008 Q66.3625,617.1633 66.3625,619.257 Q66.3625,621.3508 67.05,622.4289 Q67.7375,623.4914 69.0813,623.4914 Q69.7063,623.4914 70.3,623.2258 Q70.8938,622.9445 71.5188,622.3664 L71.5188,625.0852 Z " fill="#000000"/><text fill="#D9B8FF" font-family="Helvetica" font-size="17" lengthAdjust="spacing" textLength="94" x="91.45" y="625.3298">slack_team</text><line style="stroke:#000D19;stroke-width:0.5;" x1="37" x2="210" y1="639.3391" y2="639.3391"/><text fill="#D9B8FF" font-family="sans-serif" font-size="14" font-weight="bold" lengthAdjust="spacing" textLength="57" x="47" y="661.3342">domain</text><text fill="#D9B8FF" font-family="sans-serif" font-size="14" lengthAdjust="spacing" textLength="48" x="104" y="661.3342">: string</text><text fill="#D9B8FF" font-family="sans-serif" font-size="14" font-weight="bold" lengthAdjust="spacing" textLength="105" x="47" y="687.6311">email_domain</text><text fill="#D9B8FF" font-family="sans-serif" font-size="14" lengthAdjust="spacing" textLength="48" x="152" y="687.6311">: string</text><text fill="#D9B8FF" font-family="sans-serif" font-size="14" font-weight="bold" lengthAdjust="spacing" textLength="33" x="47" y="713.9279">icon</text><text fill="#D9B8FF" font-family="sans-serif" font-size="14" lengthAdjust="spacing" textLength="48" x="80" y="713.9279">: string</text></g><!--reverse link resource to account--><g id="link_resource_account"><path codeLine="46" d="M258.5,335.84 C258.5,384.13 258.5,413.37 258.5,438.68 " fill="none" id="resource-backto-account" style="stroke:#FFAF37;stroke-width:2.0;"/><polygon fill="none" points="258.5,317.84,252.5,335.84,264.5,335.84,258.5,317.84" style="stroke:#FFAF37;stroke-width:2.0;"/></g><!--reverse link account to slack_team--><g id="link_account_slack_team"><path codeLine="47" d="M235.5641,494.0194 C217.2141,521.4994 192.8,558.07 165.18,599.45 " fill="none" id="account-backto-slack_team" style="stroke:#FFAF37;stroke-width:2.0;"/><polygon fill="none" points="245.56,479.05,230.5743,490.6874,240.5539,497.3513,245.56,479.05" style="stroke:#FFAF37;stroke-width:2.0;"/></g><!--reverse link slack_resource to slack_team--><g id="link_slack_resource_slack_team"><path codeLine="48" d="M94.9259,496.787 C99.6759,524.267 105.53,558.07 112.69,599.45 " fill="none" id="slack_resource-backto-slack_team" style="stroke:#FFAF37;stroke-width:2.0;"/><polygon fill="none" points="91.86,479.05,89.0136,497.8089,100.8382,495.765,91.86,479.05" style="stroke:#FFAF37;stroke-width:2.0;"/></g><!--SRC=[XP9FJy904CNl_HIRU2EIW4GHuqL9Z5w8KM_6a65tMZQqksHsgi4_tzrT2xXi4M_jUx_EUpFfN2iKM2rv9IgiPaWkSmjjba1GYIiY-pQsfILnbEUG3uQfUMCD_mjCe49nY-KhifQG4azpBHS6dHCdaNKDSb6GhOrgnZE1STv2mn4rBi6vAsRIivenAgD6i_CyJybqwD50zOTdsC8iAQGrqklrL7-K8lz67TnxIppgTnJz-6WJozYgsOhueGws34HKihNenl-pupqefKqXJYFjeUb41cb7Vvo3ic-1pg5qSOnZ9BIyMkAujHMEpbK-t0lV_GLdCfnEW9JUO_6HPLzhYT3PcYHwhTE10ZkT2w5g0jRM18LrrMZ069wz9lTeMWN1-J_A5FxLTziLV1PFVRp_NvE47wTUXbc9K-t9CT18sy4CHJDHo_0PqEgvyOxNpCjsLLVwwqoZXHE7qHypd47P2hJPYK6lbDCzXfOs5hwoxVpBpswtkpbvjZbze_u6PachblyD]--></g></svg>

<svg xmlns="http://www.w3.org/2000/svg" width="379" height="733" viewBox="0 0 379 733"><rect width="107" height="39.789" x="205" y="438.76" fill="#3D176E" rx="2.5" ry="2.5" style="stroke:#000d19;stroke-width:.5"/><circle cx="220" cy="458.654" r="11" fill="#ADD1B2" style="stroke:#181818;stroke-width:1"/><path d="M222.969 464.295q-.578.297-1.219.438-.64.156-1.344.156-2.5 0-3.828-1.64-1.312-1.657-1.312-4.782t1.312-4.781q1.328-1.656 3.828-1.656.703 0 1.344.156.656.156 1.219.453v2.719q-.625-.579-1.219-.844-.594-.281-1.219-.281-1.344 0-2.031 1.078-.687 1.062-.687 3.156t.687 3.172q.688 1.062 2.031 1.062.625 0 1.219-.265.594-.281 1.219-.86z"/><text x="239" y="464.54" fill="#D9B8FF" font-family="Helvetica" font-size="17" textLength="65">account</text><rect width="227" height="310.758" x="145" y="7" fill="#3D176E" rx="2.5" ry="2.5" style="stroke:#000d19;stroke-width:.5"/><circle cx="213.75" cy="26.895" r="11" fill="#ADD1B2" style="stroke:#181818;stroke-width:1"/><path d="M216.719 32.535q-.578.297-1.219.438-.64.156-1.344.156-2.5 0-3.828-1.64-1.312-1.657-1.312-4.782t1.312-4.781q1.328-1.656 3.828-1.656.703 0 1.344.156.656.156 1.219.453v2.719q-.625-.578-1.219-.844-.594-.281-1.219-.281-1.344 0-2.031 1.078-.687 1.062-.687 3.156t.687 3.172q.688 1.062 2.031 1.062.625 0 1.219-.265.594-.281 1.219-.86z"/><text x="239.25" y="32.78" fill="#D9B8FF" font-family="Helvetica" font-size="17" textLength="71">resource</text><path d="M146 46.789h225" style="stroke:#000d19;stroke-width:.5"/><text x="156" y="68.784" fill="#D9B8FF" font-family="sans-serif" font-size="14" font-weight="bold" textLength="29">age</text><text x="185" y="68.784" fill="#D9B8FF" font-family="sans-serif" font-size="14" textLength="66">: duration</text><text x="156" y="95.081" fill="#D9B8FF" font-family="sans-serif" font-size="14" font-weight="bold" textLength="43">atime</text><text x="199" y="95.081" fill="#D9B8FF" font-family="sans-serif" font-size="14" textLength="70">: datetime</text><text x="156" y="121.378" fill="#D9B8FF" font-family="sans-serif" font-size="14" font-weight="bold" textLength="43">ctime</text><text x="199" y="121.378" fill="#D9B8FF" font-family="sans-serif" font-size="14" textLength="70">: datetime</text><text x="156" y="147.675" fill="#D9B8FF" font-family="sans-serif" font-size="14" font-weight="bold" textLength="14">id</text><text x="170" y="147.675" fill="#D9B8FF" font-family="sans-serif" font-size="14" textLength="48">: string</text><text x="156" y="173.972" fill="#D9B8FF" font-family="sans-serif" font-size="14" font-weight="bold" textLength="33">kind</text><text x="189" y="173.972" fill="#D9B8FF" font-family="sans-serif" font-size="14" textLength="48">: string</text><text x="156" y="200.269" fill="#D9B8FF" font-family="sans-serif" font-size="14" font-weight="bold" textLength="90">last_access</text><text x="246" y="200.269" fill="#D9B8FF" font-family="sans-serif" font-size="14" textLength="66">: duration</text><text x="156" y="226.565" fill="#D9B8FF" font-family="sans-serif" font-size="14" font-weight="bold" textLength="90">last_update</text><text x="246" y="226.565" fill="#D9B8FF" font-family="sans-serif" font-size="14" textLength="66">: duration</text><text x="156" y="252.862" fill="#D9B8FF" font-family="sans-serif" font-size="14" font-weight="bold" textLength="48">mtime</text><text x="204" y="252.862" fill="#D9B8FF" font-family="sans-serif" font-size="14" textLength="70">: datetime</text><text x="156" y="279.159" fill="#D9B8FF" font-family="sans-serif" font-size="14" font-weight="bold" textLength="43">name</text><text x="199" y="279.159" fill="#D9B8FF" font-family="sans-serif" font-size="14" textLength="48">: string</text><text x="156" y="305.456" fill="#D9B8FF" font-family="sans-serif" font-size="14" font-weight="bold" textLength="34">tags</text><text x="190" y="305.456" fill="#D9B8FF" font-family="sans-serif" font-size="14" textLength="171">: dictionary[string, string]</text><rect width="163" height="39.789" x="7" y="438.76" fill="#3D176E" rx="2.5" ry="2.5" style="stroke:#000d19;stroke-width:.5"/><circle cx="22" cy="458.654" r="11" fill="#ADD1B2" style="stroke:#181818;stroke-width:1"/><path d="M24.969 464.295q-.578.297-1.219.438-.64.156-1.344.156-2.5 0-3.828-1.64-1.312-1.657-1.312-4.782t1.312-4.781q1.328-1.656 3.828-1.656.703 0 1.344.156.656.156 1.219.453v2.719q-.625-.579-1.219-.844-.594-.281-1.219-.281-1.343 0-2.031 1.078-.687 1.062-.687 3.156t.687 3.172q.688 1.062 2.031 1.062.625 0 1.219-.265.594-.281 1.219-.86z"/><text x="41" y="464.54" fill="#D9B8FF" font-family="Helvetica" font-size="17" textLength="121">slack_resource</text><rect width="175" height="126.68" x="36" y="599.55" fill="#3D176E" rx="2.5" ry="2.5" style="stroke:#000d19;stroke-width:.5"/><circle cx="68.55" cy="619.444" r="11" fill="#ADD1B2" style="stroke:#181818;stroke-width:1"/><path d="M71.519 625.085q-.578.297-1.219.438-.64.156-1.344.156-2.5 0-3.828-1.64-1.312-1.657-1.312-4.782t1.312-4.781q1.328-1.657 3.828-1.657.703 0 1.344.157.656.156 1.219.453v2.719q-.625-.579-1.219-.844-.594-.281-1.219-.281-1.344 0-2.031 1.078-.687 1.062-.687 3.156t.687 3.172q.688 1.062 2.031 1.062.625 0 1.219-.265.594-.282 1.219-.86z"/><text x="91.45" y="625.33" fill="#D9B8FF" font-family="Helvetica" font-size="17" textLength="94">slack_team</text><path d="M37 639.339h173" style="stroke:#000d19;stroke-width:.5"/><text x="47" y="661.334" fill="#D9B8FF" font-family="sans-serif" font-size="14" font-weight="bold" textLength="57">domain</text><text x="104" y="661.334" fill="#D9B8FF" font-family="sans-serif" font-size="14" textLength="48">: string</text><text x="47" y="687.631" fill="#D9B8FF" font-family="sans-serif" font-size="14" font-weight="bold" textLength="105">email_domain</text><text x="152" y="687.631" fill="#D9B8FF" font-family="sans-serif" font-size="14" textLength="48">: string</text><text x="47" y="713.928" fill="#D9B8FF" font-family="sans-serif" font-size="14" font-weight="bold" textLength="33">icon</text><text x="80" y="713.928" fill="#D9B8FF" font-family="sans-serif" font-size="14" textLength="48">: string</text><path fill="none" d="M258.5 335.84v102.84m0-120.84-6 18h12zm-22.936 176.18c-18.35 27.48-42.764 64.05-70.384 105.43m80.38-120.4-14.986 11.637 9.98 6.664z" style="stroke:#ffaf37;stroke-width:2"/><g fill="none"><path d="M94.926 496.787c4.75 27.48 10.604 61.283 17.764 102.663" style="stroke:#ffaf37;stroke-width:2"/><path d="m91.86 479.05-2.846 18.759 11.824-2.044z" style="stroke:#ffaf37;stroke-width:2"/></g></svg>
